X:1
T:Etude No.11 Op.60
T:Matteo Carcassi (1792 -1853)
%%score ( 1 2 )
L:1/8
Q:1/4=80
M:2/4
K:F
V:1 treble-8 nm="Classical Guitar"
V:2 treble-8 
V:1
"^Agitato""_" E/=B/^c/ | d z z/ A/d/e/ | f z z/ A/d/f/ | a z z/ f/e/d/ | e z z/ A/^c/d/ | %5
 e z z/ A/e/f/ | g z z/ A/^c/e/ | a z z/ g/f/e/ | f z z/ f/e/d/ |"_" c z z/ !4!b/!3!a/!1!g/ | %10
 f z z/ f/e/f/ | !4!g z z/ g/f/g/ | a z z/ f/e/d/ | ^c z z/ g/f/e/ | f z z/ d/f/a/ | %15
 ^g z z/ f/e/d/ | a z z/ a/g/a/ |"_" b z z/ g/f/e/ | a z z/ f/e/d/ | %19
!>(! ^c z!>)!"_dim." z/ g/f/e/ |"_" d z z/ A/=B/^c/ |"_" d z z/ A/d/e/ | %22
 f z z/ A/d/"_cresc."f/ | a z z/ f/e/d/ |"_" _e z z/"^₵3"!<(! B/!2!e/g/!<)! | %25
"_" !4!b z z/ g/f/_e/ | d z z/ A/d/f/ | a z z/!>(! g/f/e/!>)! |"_" d z z2 |] %29
V:2
 z/ z | z/ D/F/A/ D z | z/ D/F/A/ D z | z/ D/F/A/ D z | z/ ^C/E/A/ A, z | z/ A,/^C/E/ A, z | %6
 z/ A,/^C/E/ A, z | z/ ^C/E/A/ A, z | z/ D/F/A/ D z | z/ E/F/G/ C z | z/ A/B/c/ F z | %11
 z/ E/G/c/ C z | z/ F/A/c/ F z | z/ E/F/G/ A, z | z/ F/G/A/ D z | z/ B,/D/E/ F z | %16
 z/ A,/E/^C/ A, z | z/ ^C/E/G/ A, z | z/ D/F/A/ A, z | z/ B/G/E/ ^CA, | z/ D/A/F/ D z | %21
 z/ D/F/A/ D z | z/ D/F/A/ D z | z/ D/F/A/ D z | z/ G,/B,/_E/ G, z | z/ _E/G/B/ E z | %26
 z/ A,/D/F/ A, z | z/"_" ^C/E/A/ A, z | z/ D/A/F/ D z |] %29

